www/assets/icons/diversity_2.svg

<svg width="24" height="24" viewBox="0 0 24 24" xmlns="http://www.w3.org/2000/svg" fill='currentColor'><g clip-path="url(#clip0_1616_4613)"><path d="M10.0962 15.89L11.5162 14.47C8.78621 12.04 6.9962 10.4 6.9962 8.83999C6.9962 7.78999 7.7962 6.98999 8.8462 6.98999C9.9562 6.98999 10.3862 7.63999 11.5262 8.98999H12.4562C13.5762 7.67999 13.9862 6.98999 15.1362 6.98999C16.0062 6.98999 16.6862 7.52999 16.9062 8.30999C17.2562 8.26999 17.5862 8.24999 17.9062 8.24999C18.2662 8.24999 18.6062 8.27999 18.9362 8.32999C18.6962 6.41999 17.1262 4.98999 15.1462 4.98999C15.0262 4.98999 14.9162 5.01999 14.7962 5.02999C14.9162 4.69999 14.9962 4.35999 14.9962 3.98999C14.9962 2.32999 13.6562 0.98999 11.9962 0.98999C10.3362 0.98999 8.9962 2.32999 8.9962 3.98999C8.9962 4.35999 9.0762 4.69999 9.1962 5.02999C9.0762 5.01999 8.9662 4.98999 8.8462 4.98999C6.6862 4.98999 4.9962 6.67999 4.9962 8.83999C4.9962 11.26 7.0362 13.15 10.0962 15.89Z"/><path d="M22.4962 16.23C22.1762 16.05 21.8362 15.94 21.4962 15.88C21.5662 15.78 21.6462 15.7 21.7062 15.6C22.7862 13.73 22.1662 11.42 20.2962 10.34C18.2062 9.12999 15.5362 9.94999 11.6462 11.24L12.1662 13.18C15.6362 12.04 17.9562 11.3 19.3062 12.08C20.2162 12.61 20.5062 13.69 19.9862 14.61C19.4262 15.57 18.6562 15.61 16.9162 15.93L16.4462 16.74C17.0262 18.36 17.4162 19.07 16.8362 20.06C16.3062 20.97 15.2262 21.26 14.3062 20.74C14.2462 20.71 14.1962 20.65 14.1362 20.61C13.8362 21.28 13.4962 21.85 13.1062 22.34C13.1762 22.38 13.2362 22.43 13.3062 22.48C15.1762 23.56 17.4862 22.94 18.5662 21.07C18.6262 20.97 18.6562 20.86 18.7062 20.75C18.9262 21.02 19.1862 21.26 19.5062 21.44C20.9362 22.27 22.7762 21.78 23.6062 20.34C24.4362 18.9 23.9262 17.05 22.4962 16.23Z"/><path d="M12.3162 14C11.5762 17.58 11.0462 19.95 9.6962 20.73C8.7862 21.26 7.6962 20.97 7.1662 20.05C6.6062 19.09 6.9662 18.39 7.5562 16.73L7.0962 15.92C5.3962 15.61 4.5962 15.59 4.0262 14.6C3.4962 13.69 3.7862 12.6 4.7062 12.07C4.7962 12.02 4.8962 11.99 4.9962 11.96C4.6462 11.4 4.3562 10.79 4.1762 10.11C4.0162 10.18 3.8562 10.25 3.6962 10.34C1.8262 11.42 1.2062 13.73 2.2862 15.6C2.3462 15.7 2.4262 15.78 2.4962 15.88C2.1562 15.94 1.8162 16.05 1.4962 16.23C0.066204 17.06 -0.433796 18.89 0.396204 20.33C1.2262 21.77 3.0562 22.26 4.4962 21.43C4.8162 21.25 5.0762 21.01 5.2962 20.74C5.3462 20.85 5.3762 20.96 5.4362 21.06C6.5162 22.93 8.8262 23.55 10.6962 22.47C12.7862 21.26 13.4062 18.54 14.2462 14.53L12.3162 14Z"/></g><defs><clipPath id="clip0_1616_4613"><rect width="24" height="24"/></clipPath></defs></svg>

<svg xmlns="http://www.w3.org/2000/svg" width="24" height="24" viewBox="0 0 24 24" fill='currentColor'><g clip-path="url(#a)"><path d="m10.096 15.89 1.42-1.42c-2.73-2.43-4.52-4.07-4.52-5.63 0-1.05.8-1.85 1.85-1.85 1.11 0 1.54.65 2.68 2h.93c1.12-1.31 1.53-2 2.68-2 .87 0 1.55.54 1.77 1.32.35-.04.68-.06 1-.06.36 0 .7.03 1.03.08-.24-1.91-1.81-3.34-3.79-3.34-.12 0-.23.03-.35.04.12-.33.2-.67.2-1.04 0-1.66-1.34-3-3-3s-3 1.34-3 3c0 .37.08.71.2 1.04-.12-.01-.23-.04-.35-.04-2.16 0-3.85 1.69-3.85 3.85 0 2.42 2.04 4.31 5.1 7.05"/><path d="M22.496 16.23c-.32-.18-.66-.29-1-.35.07-.1.15-.18.21-.28 1.08-1.87.46-4.18-1.41-5.26-2.09-1.21-4.76-.39-8.65.9l.52 1.94c3.47-1.14 5.79-1.88 7.14-1.1.91.53 1.2 1.61.68 2.53-.56.96-1.33 1-3.07 1.32l-.47.81c.58 1.62.97 2.33.39 3.32-.53.91-1.61 1.2-2.53.68-.06-.03-.11-.09-.17-.13-.3.67-.64 1.24-1.03 1.73.07.04.13.09.2.14 1.87 1.08 4.18.46 5.26-1.41.06-.1.09-.21.14-.32.22.27.48.51.8.69 1.43.83 3.27.34 4.1-1.1s.32-3.29-1.11-4.11"/><path d="M12.316 14c-.74 3.58-1.27 5.95-2.62 6.73-.91.53-2 .24-2.53-.68-.56-.96-.2-1.66.39-3.32l-.46-.81c-1.7-.31-2.5-.33-3.07-1.32-.53-.91-.24-2 .68-2.53.09-.05.19-.08.29-.11-.35-.56-.64-1.17-.82-1.85-.16.07-.32.14-.48.23-1.87 1.08-2.49 3.39-1.41 5.26.06.1.14.18.21.28-.34.06-.68.17-1 .35a3.005 3.005 0 0 0-1.1 4.1 2.996 2.996 0 0 0 4.1 1.1c.32-.18.58-.42.8-.69.05.11.08.22.14.32 1.08 1.87 3.39 2.49 5.26 1.41 2.09-1.21 2.71-3.93 3.55-7.94z"/></g><defs><clipPath id="a"><path d="M0 0h24v24H0z"/></clipPath></defs></svg>
